build/flags/NorthMacedonia.svg

<svg xmlns="http://www.w3.org/2000/svg" fill="none" viewBox="0 0 28 28" focusable="false"><defs><filter id="North_Macedonia_svg__a"><feColorMatrix values="0 0 0 0 1 0 0 0 0 1 0 0 0 0 1 0 0 0 1 0"/></filter></defs><mask id="North_Macedonia_svg__b" width="28" height="20" x="0" y="4" maskUnits="userSpaceOnUse"><g filter="url(#North_Macedonia_svg__a)"><rect width="28" height="20" y="4" fill="#FFF" rx="3"/><rect width="28" height="20" y="4" stroke="#969696" stroke-opacity="0" stroke-width="0" rx="3"/></g></mask><path fill="none" d="M0 0H28V28H0z"/><rect width="28" height="20" y="4" fill="#FFF" rx="3"/><rect width="28" height="20" y="4" rx="3"/><g mask="url(#North_Macedonia_svg__b)"><path fill="#E81B26" d="M0 4H28V24H0z"/><path d="M0 4H28V24H0z"/><path fill="#FFE94F" fill-rule="evenodd" d="M14 17.3334C15.841 17.3334 17.3334 15.841 17.3334 14C17.3334 12.1591 15.841 10.6667 14 10.6667C12.1591 10.6667 10.6667 12.1591 10.6667 14C10.6667 15.841 12.1591 17.3334 14 17.3334Z"/><path d="M17.3334 14C17.3334 12.1591 15.841 10.6667 14 10.6667C12.1591 10.6667 10.6667 12.1591 10.6667 14C10.6667 15.841 12.1591 17.3334 14 17.3334C15.841 17.3334 17.3334 15.841 17.3334 14Z"/><path fill="#FFE94F" fill-rule="evenodd" d="M13.0846 9.42308L12 4L16 4L14.9154 9.42308C14.6194 9.36421 14.3133 9.33333 14 9.33333C13.6867 9.33333 13.3806 9.36421 13.0846 9.42308ZM10.2081 11.2793C10.4094 10.9992 10.641 10.7423 10.898 10.5135L1.96168 0.46936L-0.714844 3.44194L10.2081 11.2793ZM9.37967 13.34C9.34915 13.5556 9.33336 13.7759 9.33336 14C9.33336 14.2241 9.34915 14.4444 9.37968 14.6601L2.43187e-05 16L2.43187e-05 12L9.37967 13.34ZM10.898 17.4865C10.641 17.2577 10.4094 17.0008 10.2081 16.7207L-0.714844 24.5581L1.96168 27.5306L10.898 17.4865ZM17.102 10.5135C17.3591 10.7423 17.5906 10.9992 17.7919 11.2793L28.7149 3.44194L26.0384 0.46936L17.102 10.5135ZM13.0846 18.5769L12 24L16 24L14.9154 18.5769C14.6194 18.6358 14.3133 18.6667 14 18.6667C13.6867 18.6667 13.3806 18.6358 13.0846 18.5769ZM17.7919 16.7207C17.5906 17.0008 17.3591 17.2577 17.102 17.4865L26.0384 27.5306L28.7149 24.5581L17.7919 16.7207ZM18.6204 13.34C18.6509 13.5556 18.6667 13.7759 18.6667 14C18.6667 14.2241 18.6509 14.4444 18.6204 14.6601L28 16L28 12L18.6204 13.34Z"/><path d="M13.0846 9.42308L12 4L16 4L14.9154 9.42308C14.6194 9.36421 14.3133 9.33333 14 9.33333C13.6867 9.33333 13.3806 9.36421 13.0846 9.42308ZM10.2081 11.2793C10.4094 10.9992 10.641 10.7423 10.898 10.5135L1.96168 0.46936L-0.714844 3.44194L10.2081 11.2793ZM9.37967 13.34C9.34915 13.5556 9.33336 13.7759 9.33336 14C9.33336 14.2241 9.34915 14.4444 9.37968 14.6601L2.43187e-05 16L2.43187e-05 12L9.37967 13.34ZM10.898 17.4865C10.641 17.2577 10.4094 17.0008 10.2081 16.7207L-0.714844 24.5581L1.96168 27.5306L10.898 17.4865ZM17.102 10.5135C17.3591 10.7423 17.5906 10.9992 17.7919 11.2793L28.7149 3.44194L26.0384 0.46936L17.102 10.5135ZM13.0846 18.5769L12 24L16 24L14.9154 18.5769C14.6194 18.6358 14.3133 18.6667 14 18.6667C13.6867 18.6667 13.3806 18.6358 13.0846 18.5769ZM17.7919 16.7207C17.5906 17.0008 17.3591 17.2577 17.102 17.4865L26.0384 27.5306L28.7149 24.5581L17.7919 16.7207ZM18.6204 13.34C18.6509 13.5556 18.6667 13.7759 18.6667 14C18.6667 14.2241 18.6509 14.4444 18.6204 14.6601L28 16L28 12L18.6204 13.34Z"/></g></svg>

<svg xmlns="http://www.w3.org/2000/svg" fill="none" viewBox="0 0 29 28" focusable="false"><path fill="none" d="M0 0h28v28H0z"/><rect width="28" height="20" y="4" fill="#FFF" rx="3"/><rect width="28" height="20" y="4" rx="3"/><mask id="North_Macedonia_svg__a" width="28" height="20" x="0" y="4" mask-type="alpha" maskUnits="userSpaceOnUse"><rect width="28" height="20" y="4" fill="#FFF" rx="3"/><rect width="28" height="20" y="4" stroke="#979797" stroke-opacity="0" stroke-width="0" rx="3"/></mask><g mask="url(#North_Macedonia_svg__a)"><path fill="#E81B26" d="M0 4h28v20H0z"/><path d="M0 4h28v20H0z"/></g><g mask="url(#North_Macedonia_svg__a)"><path fill="#FFE94F" fill-rule="evenodd" d="M14 17.33c1.84 0 3.33-1.49 3.33-3.33 0-1.85-1.49-3.34-3.33-3.34-1.85 0-3.34 1.49-3.34 3.34 0 1.84 1.49 3.33 3.34 3.33"/><path d="M17.33 14c0-1.85-1.49-3.34-3.33-3.34-1.85 0-3.34 1.49-3.34 3.34 0 1.84 1.49 3.33 3.34 3.33 1.84 0 3.33-1.49 3.33-3.33"/></g><g mask="url(#North_Macedonia_svg__a)"><mask id="North_Macedonia_svg__b" fill="#fff"><path fill-rule="evenodd" d="M13.085 9.423 12 4h4l-1.085 5.423a4.7 4.7 0 0 0-1.83 0m-2.877 1.856q.303-.421.69-.765L1.962.469-.715 3.442zM9.38 13.34a4.7 4.7 0 0 0 0 1.32L0 16v-4zm1.518 4.147a4.7 4.7 0 0 1-.69-.766L-.715 24.558l2.677 2.973zm6.204-6.973q.387.343.69.765l10.923-7.837L26.038.469zm-4.017 8.063L12 24h4l-1.085-5.423a4.7 4.7 0 0 1-1.83 0m4.707-1.856q-.303.422-.69.765l8.936 10.045 2.677-2.973zm.828-3.381a4.7 4.7 0 0 1 0 1.32L28 16v-4z" clip-rule="evenodd"/></mask><path fill="#FFE94F" fill-rule="evenodd" d="M13.085 9.423 12 4h4l-1.085 5.423a4.7 4.7 0 0 0-1.83 0m-2.877 1.856q.303-.421.69-.765L1.962.469-.715 3.442zM9.38 13.34a4.7 4.7 0 0 0 0 1.32L0 16v-4zm1.518 4.147a4.7 4.7 0 0 1-.69-.766L-.715 24.558l2.677 2.973zm6.204-6.973q.387.343.69.765l10.923-7.837L26.038.469zm-4.017 8.063L12 24h4l-1.085-5.423a4.7 4.7 0 0 1-1.83 0m4.707-1.856q-.303.422-.69.765l8.936 10.045 2.677-2.973zm.828-3.381a4.7 4.7 0 0 1 0 1.32L28 16v-4z" clip-rule="evenodd" mask="url(#North_Macedonia_svg__b)"/></g></svg>
